X: 31422
T: COTILLION No. 30. TOM MOORE'S SETT tune 2
C:
%R: reel
B: Elias Howe "The Musician's Companion" Part 3 1844 p.142 #2
S: http://imslp.org/wiki/The_Musician's_Companion_(Howe,_Elias)
Z: 2015 John Chambers <jc:trillian.mit.edu>
N: The rhythms are wrong at the strain boundaries; not fixed.
N: Bar 23 has ^e; the sharp should obviously be on the c note.
M: 2/4
L: 1/16
K: G
N: This tune is labelled "3", but it's obviously tune 2.
N: The book has two sharps (^f^c) in the key signature, but that makes no sense here.
% - - - - - - - - - - - - - - - - - - - - - - - - - - - - -
D2 |\
GBdB GBdB | G2e2e2d2 | c2ec B2dB | A2cA GFED |\
GBdB GBdB | G2e2e2d2 | c2ec B2dB | ecAF G2 H|]
DEFG A2AB | dcAc | B2G2 | GABc d2ef | {a}g2fe d4 |\
DEFG A2AB | dcAc B2G2 | GABc d2gf | bge^c "^D.C."d4 |]
dfaf dfaf | d2b2b2a2 | g2bg f2af | fege d^cBA |\
dfaf dfaf | d2b2b2a2 | g2bg gfaf | bge^c d4 |\
b2cB c2c2 | a2BA B2B2 | cBAG FGAB | AGFE "^D.C."D4 |]
% - - - - - - - - - - Dance description - - - - - - - - - -
%%begintext align
%% First 2 forward and back,
%% cross over,
%% chassa de chassa,
%% cross back,
%% balance partners and turn.
%% Next 2 &c.
%%endtext
% - - - - - - - - - - - - - - - - - - - - - - - - - - - - -
%%sep 1 1 300
